source/icons/cat-sitting.svg

<svg width="140" height="140" viewBox="0 0 140 140" xmlns="http://www.w3.org/2000/svg">
<circle cx="70" cy="70" r="50" fill="#68B738"/>
<path d="M89.84 14H89.46C88.818 14.3629 88.307 14.9194 88 15.59C87.4377 16.6721 87.0047 17.8167 86.71 19C86.6468 19.3558 86.4671 19.6805 86.1992 19.9231C85.9313 20.1657 85.5903 20.3123 85.23 20.34C84.1279 20.53 83.0837 20.9693 82.1773 21.6244C81.2709 22.2795 80.5262 23.1331 80 24.12C79.2766 25.4013 78.6579 26.739 78.15 28.12C76.73 31.8 75.64 35.6 74.3 39.31C73.67 41 73.64 41 71.74 41C69.47 41 69.63 40.65 69.6 43.15C69.6 43.94 69.84 44.34 70.68 44.3C70.94 44.3 71.33 44.17 71.43 44.51C71.53 44.85 71.19 45 70.99 45.2C69.8043 46.4036 68.3038 47.2492 66.66 47.64C64.76 48.15 62.82 48.55 60.97 49.17C56.22 50.76 51.83 52.98 48.41 56.74C46.4103 59.0754 44.8088 61.7242 43.67 64.58C40 73.22 38.22 82.32 36.84 91.51C36.19 95.82 35.73 100.15 35.38 104.51C35.2 106.65 35 108.82 35 111H68.33C68.3854 110.56 68.3051 110.113 68.1 109.72C67.7794 108.922 67.2586 108.22 66.5877 107.683C65.9167 107.145 65.1185 106.789 64.27 106.65C63.57 106.49 63.49 106.28 63.92 105.73C64.6214 104.794 65.159 103.746 65.51 102.63C67.14 97.82 67.77 92.8 68.56 87.83C69.0063 84.0338 70.1739 80.3579 72 77C73.4244 74.5284 75.3243 72.3634 77.59 70.63C78.42 70 78.45 70 78.59 71.07C78.69 71.78 78.71 72.51 78.76 73.23C79.0601 77.9544 78.9999 82.6948 78.58 87.41C78.2024 91.0649 78.1522 94.7462 78.43 98.41C78.8275 102.664 79.5869 106.875 80.7 111H94C93.8264 109.917 93.328 108.913 92.5708 108.12C91.8136 107.327 90.8334 106.783 89.76 106.56C88.5066 106.361 87.2252 106.429 86 106.76C85.4 106.9 85.15 106.76 85.1 106.11C84.6863 100.816 85.0229 95.4899 86.1 90.29C87.4338 84.287 88.4552 78.2189 89.16 72.11C89.4224 69.643 90.1991 67.2584 91.44 65.11C92.63 62.99 93.67 60.79 94.84 58.66C95.3045 57.8855 95.5841 57.0143 95.657 56.1141C95.7298 55.2139 95.594 54.3091 95.26 53.47C94.99 52.76 94.73 52.04 94.4 51.36C93.4 49.41 92.4 47.48 91.48 45.51C90.99 44.51 91.1 44.39 92.19 44.36C93.82 44.36 93.82 44.36 93.85 42.72C93.85 42.5 93.85 42.28 93.85 42.06C93.85 41.37 93.59 40.99 92.85 41.06C92.35 41.06 91.85 41.06 91.33 41.06C90.64 41.06 90.44 40.77 90.61 40.06C90.9473 38.9058 91.611 37.8737 92.5211 37.0877C93.4312 36.3018 94.549 35.7956 95.74 35.63C97.9557 35.4379 100.188 35.5829 102.36 36.06C102.611 36.139 102.882 36.1161 103.116 35.9963C103.35 35.8766 103.528 35.6695 103.61 35.42C104.01 34.42 104.45 33.42 104.9 32.42C105.002 32.2426 105.047 32.0381 105.029 31.8343C105.011 31.6304 104.931 31.437 104.8 31.28C101.6 27.22 98.13 23.43 93.4 21C93.1715 20.9016 92.9712 20.7476 92.8175 20.552C92.6638 20.3563 92.5615 20.1253 92.52 19.88C92.2523 18.4505 91.8264 17.0553 91.25 15.72C90.9795 15.0086 90.4845 14.4048 89.84 14V14Z" fill="black"/>
</svg>

<svg xmlns="http://www.w3.org/2000/svg" viewBox="0 0 140 140"><circle cx="70" cy="70" r="50" fill="#68B738"/><path d="M89.84 14h-.38a3.5 3.5 0 0 0-1.46 1.59c-.56 1.08-1 2.23-1.29 3.41a1.63 1.63 0 0 1-1.48 1.34 7.34 7.34 0 0 0-5.23 3.78 27.31 27.31 0 0 0-1.85 4c-1.42 3.68-2.51 7.48-3.85 11.19-.63 1.69-.66 1.69-2.56 1.69-2.27 0-2.11-.35-2.14 2.15 0 .79.24 1.19 1.08 1.15.26 0 .65-.13.75.21.1.34-.24.49-.44.69a9 9 0 0 1-4.33 2.44c-1.9.51-3.84.91-5.69 1.53-4.75 1.59-9.14 3.81-12.56 7.57a28 28 0 0 0-4.74 7.84c-3.67 8.64-5.45 17.74-6.83 26.93-.65 4.31-1.11 8.64-1.46 13-.18 2.14-.38 4.31-.38 6.49h33.33a2.1 2.1 0 0 0-.23-1.28 5 5 0 0 0-3.83-3.07c-.7-.16-.78-.37-.35-.92.7-.94 1.24-1.98 1.59-3.1 1.63-4.81 2.26-9.83 3.05-14.8a30 30 0 0 1 3.44-10.83 21.6 21.6 0 0 1 5.59-6.37c.83-.63.86-.63 1 .44.1.71.12 1.44.17 2.16.3 4.72.24 9.46-.18 14.18a61.67 61.67 0 0 0-.15 11c.4 4.25 1.16 8.47 2.27 12.59h13.3a5.41 5.41 0 0 0-4.24-4.44 9 9 0 0 0-3.76.2c-.6.14-.85 0-.9-.65a56.35 56.35 0 0 1 1-15.82c1.33-6 2.36-12.07 3.06-18.18a17.75 17.75 0 0 1 2.28-7c1.19-2.12 2.23-4.32 3.4-6.45a5.87 5.87 0 0 0 .42-5.19c-.27-.71-.53-1.43-.86-2.11-1-1.95-2-3.88-2.92-5.85-.49-1-.38-1.12.71-1.15 1.63 0 1.63 0 1.66-1.64v-.66c0-.69-.26-1.07-1-1h-1.52c-.69 0-.89-.29-.72-1a6.24 6.24 0 0 1 5.13-4.43 22 22 0 0 1 6.62.43 1 1 0 0 0 1.25-.64c.4-1 .84-2 1.29-3a1 1 0 0 0-.1-1.14c-3.2-4.06-6.67-7.85-11.4-10.28a1.5 1.5 0 0 1-.88-1.12 19.6 19.6 0 0 0-1.27-4.16 3.5 3.5 0 0 0-1.41-1.72Z"/></svg>
